material/.icons/material/egg-off.svg

<svg xmlns="http://www.w3.org/2000/svg" viewBox="0 0 24 24"><path d="M22.1 21.5L2.4 1.7 1.1 3l5 5c-1 2.3-1.6 4.8-1.6 6.5 0 4.1 3.4 7.5 7.5 7.5 2.2 0 4.2-1 5.6-2.5l3.2 3.2 1.3-1.2m-2.6-7C19.5 10.4 16.1 2 12 2c-1.5 0-2.9 1.1-4.1 2.7l11.4 11.4c.1-.5.2-1 .2-1.6z"/></svg>

<?xml version="1.0" encoding="UTF-8"?><!DOCTYPE svg PUBLIC "-//W3C//DTD SVG 1.1//EN" "http://www.w3.org/Graphics/SVG/1.1/DTD/svg11.dtd"><svg xmlns="http://www.w3.org/2000/svg" xmlns:xlink="http://www.w3.org/1999/xlink" version="1.1" id="mdi-egg-off" width="24" height="24" viewBox="0 0 24 24"><path d="M22.1 21.5L2.4 1.7L1.1 3L6.1 8C5.1 10.3 4.5 12.8 4.5 14.5C4.5 18.6 7.9 22 12 22C14.2 22 16.2 21 17.6 19.5L20.8 22.7L22.1 21.5M19.5 14.5C19.5 10.4 16.1 2 12 2C10.5 2 9.1 3.1 7.9 4.7L19.3 16.1C19.4 15.6 19.5 15.1 19.5 14.5Z" /></svg>
